svgs/mycolruyt.svg

<svg xmlns="http://www.w3.org/2000/svg" viewBox="0 0 192 192"><path d="M16.068 147.996c.38-1.016 11.714-25.233 25.187-53.815l24.498-51.967 55.123-.029L176 42.156l-5.595 11.878a47060.295 47060.295 0 0 1-25.471 53.843l-19.876 41.967h-54.84c-51.787 0-54.801-.103-54.15-1.848Z"/></svg>

<svg
    xmlns="http://www.w3.org/2000/svg"
    viewBox="0 0 192 192"
    id="vector">
    <g id="group">
        <path
            id="path_6"
            d="M 16.068 147.996 C 16.448 146.98 27.782 122.763 41.255 94.181 L 65.753 42.214 L 120.876 42.185 L 176 42.156 L 170.405 54.034 C 167.328 60.566 155.866 84.796 144.934 107.877 L 125.058 149.844 L 70.218 149.844 C 18.431 149.844 15.417 149.741 16.068 147.996 Z"
            fill="#000000"
            stroke-width="12"/>
    </g>
</svg>
